styles/4/Numix/64/places/default-folder-recent.svg

<?xml version="1.0" encoding="UTF-8" standalone="no"?>
<!-- Created with Inkscape (http://www.inkscape.org/) -->

<svg
   xmlns:dc="http://purl.org/dc/elements/1.1/"
   xmlns:cc="http://creativecommons.org/ns#"
   xmlns:rdf="http://www.w3.org/1999/02/22-rdf-syntax-ns#"
   xmlns:svg="http://www.w3.org/2000/svg"
   xmlns="http://www.w3.org/2000/svg"
   xmlns:sodipodi="http://sodipodi.sourceforge.net/DTD/sodipodi-0.dtd"
   xmlns:inkscape="http://www.inkscape.org/namespaces/inkscape"
   width="64"
   height="64"
   id="svg2"
   version="1.1"
   inkscape:version="0.91 r"
   sodipodi:docname="default-folder-recent.svg"
   inkscape:export-filename="/media/Data/Main/Visuals/Icons/Numix/Desktop/repos/numix-wiki/Gjorgi/Numix-folders/48/New/folder-144.png"
   inkscape:export-xdpi="270"
   inkscape:export-ydpi="270">
  <defs
     id="defs4" />
  <sodipodi:namedview
     id="base"
     pagecolor="#ffffff"
     bordercolor="#666666"
     borderopacity="1.0"
     inkscape:pageopacity="0.0"
     inkscape:pageshadow="2"
     inkscape:zoom="9.1850986"
     inkscape:cx="20.629884"
     inkscape:cy="19.119988"
     inkscape:document-units="px"
     inkscape:current-layer="layer1"
     showgrid="true"
     inkscape:window-width="1280"
     inkscape:window-height="998"
     inkscape:window-x="0"
     inkscape:window-y="0"
     inkscape:window-maximized="1"
     showguides="true"
     inkscape:guide-bbox="true">
    <inkscape:grid
       type="xygrid"
       id="grid2985"
       empspacing="5"
       visible="true"
       enabled="true"
       snapvisiblegridlinesonly="true" />
  </sodipodi:namedview>
  <metadata
     id="metadata7">
    <rdf:RDF>
      <cc:Work
         rdf:about="">
        <dc:format>image/svg+xml</dc:format>
        <dc:type
           rdf:resource="http://purl.org/dc/dcmitype/StillImage" />
        <dc:title />
      </cc:Work>
    </rdf:RDF>
  </metadata>
  <g
     inkscape:label="Layer 1"
     inkscape:groupmode="layer"
     id="layer1"
     transform="translate(0,-988.3622)">
    <path
       style="fill:#e9a439;fill-opacity:1;stroke:none"
       d="m 8,998.36219 47,0 c 2,0 3,0.99975 3,2.99921 l 0,6.9982 c 0,1.1077 -0.9474,0.9997 -2,0.9997 l -48,0 c -1.0526,0 -2,-0.8918 -2,-1.9995 l 0,-8.99761 z"
       id="path3811"
       inkscape:connector-curvature="0"
       sodipodi:nodetypes="csssssscc" />
    <path
       style="opacity:0.02999998;fill:#000000;fill-opacity:1;stroke:none"
       d="m 6,1004.3623 0,4.9999 52,0 0,-4.9999 z"
       id="path3807"
       inkscape:connector-curvature="0" />
    <path
       style="fill:#e9a439;fill-opacity:1;stroke:none"
       d="m 6,1002.3622 0,-4.99998 c 0,-2 0.909091,-3 1.8181819,-3 l 10.3636361,0 c 0.909091,0 1.818182,1 1.818182,3 l 0,4.99998 z"
       id="rect3760"
       inkscape:connector-curvature="0"
       sodipodi:nodetypes="csssscc" />
    <rect
       style="fill:#f5c14e;fill-opacity:1;stroke:none"
       id="rect2990"
       width="60"
       height="40"
       x="2"
       y="1006.3622"
       rx="4"
       ry="3.3333333" />
    <path
       style="opacity:0.1;fill:#ffffff;fill-opacity:1;stroke:none"
       d="m 6,1006.3622 c -2.216,0 -4,1.4971 -4,3.3438 l 0,2 c 0,-1.8467 1.784,-3.3438 4,-3.3438 l 52,0 c 2.216,0 4,1.4971 4,3.3438 l 0,-2 c 0,-1.8467 -1.784,-3.3438 -4,-3.3438 l -52,0 z"
       id="rect3004"
       inkscape:connector-curvature="0" />
    <path
       style="opacity:0.05;fill:#000000;fill-opacity:1;stroke:none"
       d="m 20,998.3622 0,2 2,0 33,0 c 2,0 3,1.0005 3,3 l 0,-2 c 0,-1.99946 -1,-3 -3,-3 l -33,0 z"
       id="path3781"
       inkscape:connector-curvature="0"
       sodipodi:nodetypes="cccscsscc" />
    <path
       style="opacity:0.05;fill:#000000;fill-opacity:1;stroke:none"
       d="m 7.8125,994.3622 c -0.9090909,0 -1.8125,1 -1.8125,3 l 0,2 c 0,-2 0.9034091,-3 1.8125,-3 l 10.375,0 c 0.909091,0 1.8125,1 1.8125,3 l 0,-2 c 0,-2 -0.903409,-3 -1.8125,-3 l -10.375,0 z"
       id="path3801"
       inkscape:connector-curvature="0" />
    <path
       style="opacity:1.0;fill:#c79d41;fill-opacity:1;stroke:none"
       d="M 18 24 L 18 34 L 28 34 L 24.21875 30.21875 C 26.211432 28.22875 28.962499 27 32 27 C 38.075132 27 43 31.9249 43 38 C 43 44.0751 38.075132 49 32 49 C 25.924868 49 21 44.0751 21 38 C 21 37.6624 21.03272 37.3299 21.0625 37 L 18.03125 37 C 18.00797 37.3301 18 37.664 18 38 C 18 45.732 24.268014 52 32 52 C 39.731986 52 46 45.732 46 38 C 46 30.268 39.731986 24 32 24 C 28.128254 24 24.626811 25.554903 22.09375 28.09375 L 18 24 z M 31.8125 28.9375 A 2.0002 2.0002 0 0 0 31.5625 29 A 2.0002 2.0002 0 0 0 30 31 L 30 38.375 A 2.0002 2.0002 0 0 0 30 38.5625 A 2.0002 2.0002 0 0 0 30.25 40.0625 A 2.0002 2.0002 0 0 0 30.3125 40.125 A 2.0002 2.0002 0 0 0 30.375 40.25 A 2.0002 2.0002 0 0 0 30.4375 40.3125 A 2.0002 2.0002 0 0 0 30.5 40.375 A 2.0002 2.0002 0 0 0 30.5625 40.4375 A 2.0002 2.0002 0 0 0 30.625 40.5 A 2.0002 2.0002 0 0 0 30.75 40.5625 A 2.0002 2.0002 0 0 0 30.8125 40.625 A 2.0002 2.0002 0 0 0 30.875 40.6875 A 2.0002 2.0002 0 0 0 31 40.75 A 2.0002 2.0002 0 0 0 31.25 40.875 L 36.1875 43.75 A 2.0155644 2.0155644 0 0 0 38.1875 40.25 L 34 37.8125 L 34 31 A 2.0002 2.0002 0 0 0 31.8125 28.9375 z "
       transform="translate(0,988.3622)"
       id="path4017" />
  </g>
</svg>

<!-- Created with Inkscape (http://www.inkscape.org/) -->
<svg xmlns="http://www.w3.org/2000/svg" viewBox="0 0 64 64">
 <g transform="translate(0,-988.3622)">
  <path d="m 8 998.36 47 0 c 2 0 3 1 3 2.999 l 0 6.998 c 0 1.108 -0.947 1 -2 1 l -48 0 c -1.053 0 -2 -0.892 -2 -2 l 0 -8.998 z" style="fill:#e9a439;fill-opacity:1;stroke:none"/>
  <path d="m 6 1004.36 0 5 52 0 0 -5 z" style="fill:#000;opacity:0.03;fill-opacity:1;stroke:none"/>
  <path d="m 6 1002.36 0 -5 c 0 -2 0.909 -3 1.818 -3 l 10.364 0 c 0.909 0 1.818 1 1.818 3 l 0 5 z" style="fill:#e9a439;fill-opacity:1;stroke:none"/>
  <rect width="60" height="40" x="2" y="1006.36" rx="4" ry="3.333" style="fill:#f5c14e;fill-opacity:1;stroke:none"/>
  <path d="m 6 1006.36 c -2.216 0 -4 1.497 -4 3.344 l 0 2 c 0 -1.847 1.784 -3.344 4 -3.344 l 52 0 c 2.216 0 4 1.497 4 3.344 l 0 -2 c 0 -1.847 -1.784 -3.344 -4 -3.344 l -52 0 z" style="fill:#fff;opacity:0.1;fill-opacity:1;stroke:none"/>
  <path d="m 20 998.36 0 2 2 0 33 0 c 2 0 3 1 3 3 l 0 -2 c 0 -1.999 -1 -3 -3 -3 l -33 0 z" style="fill:#000;opacity:0.05;fill-opacity:1;stroke:none"/>
  <path d="m 7.813 994.36 c -0.909 0 -1.813 1 -1.813 3 l 0 2 c 0 -2 0.903 -3 1.813 -3 l 10.375 0 c 0.909 0 1.813 1 1.813 3 l 0 -2 c 0 -2 -0.903 -3 -1.813 -3 l -10.375 0 z" style="fill:#000;opacity:0.05;fill-opacity:1;stroke:none"/>
  <path d="m 18 24 l 0 10 l 10 0 l -3.781 -3.781 c 1.993 -1.99 4.744 -3.219 7.781 -3.219 c 6.075 0 11 4.925 11 11 c 0 6.075 -4.925 11 -11 11 c -6.075 0 -11 -4.925 -11 -11 c 0 -0.338 0.033 -0.67 0.063 -1 l -3.03 0 c -0.023 0.33 -0.031 0.664 -0.031 1 c 0 7.732 6.268 14 14 14 c 7.732 0 14 -6.268 14 -14 c 0 -7.732 -6.268 -14 -14 -14 c -3.872 0 -7.373 1.555 -9.906 4.094 l -4.094 -4.094 z m 13.813 4.938 a 2 2 0 0 0 -0.25 0.063 a 2 2 0 0 0 -1.563 2 l 0 7.375 a 2 2 0 0 0 0 0.188 a 2 2 0 0 0 0.25 1.5 a 2 2 0 0 0 0.063 0.063 a 2 2 0 0 0 0.063 0.125 a 2 2 0 0 0 0.063 0.063 a 2 2 0 0 0 0.063 0.063 a 2 2 0 0 0 0.063 0.063 a 2 2 0 0 0 0.063 0.063 a 2 2 0 0 0 0.125 0.063 a 2 2 0 0 0 0.063 0.063 a 2 2 0 0 0 0.063 0.063 a 2 2 0 0 0 0.125 0.063 a 2 2 0 0 0 0.25 0.125 l 4.938 2.875 a 2.02 2.02 0 0 0 2 -3.5 l -4.188 -2.438 l 0 -6.813 a 2 2 0 0 0 -2.188 -2.063 z" transform="translate(0,988.3622)" style="fill:#c79d41;opacity:1;fill-opacity:1;stroke:none"/>
 </g>
</svg>
